img/delete2.svg

<svg fill="none" height="800" viewBox="0 0 24 24" width="800" xmlns="http://www.w3.org/2000/svg">
    <path clip-rule="evenodd"
          d="m6.87114 19.4986c.92971.5014 2.04344.5014 4.27086.5014h2.637c3.8754 0 5.8131 0 7.0171-1.1716 1.2039-1.1715 1.2039-3.0572 1.2039-6.8284 0-3.77124 0-5.65685-1.2039-6.82843-1.204-1.17157-3.1417-1.17157-7.0171-1.17157h-2.637c-2.22742 0-3.34115 0-4.27086.50143-.9297.50143-1.51997 1.42048-2.70053 3.25858l-.6808 1.06c-.99321 1.54639-1.48981 2.31959-1.48981 3.17999s.4966 1.6336 1.48981 3.18l.6808 1.06c1.18056 1.8381 1.77083 2.7571 2.70053 3.2586zm4.15916-10.52893c-.2929-.29289-.7678-.29289-1.06065 0-.29289.29289-.29289.76777 0 1.06063l1.96965 1.9697-1.96963 1.9697c-.29289.2929-.29289.7677 0 1.0606.29293.2929.76773.2929 1.06063 0l1.9697-1.9696 1.9696 1.9696c.2929.2929.7678.2929 1.0607 0s.2929-.7678 0-1.0606l-1.9697-1.9697 1.9697-1.9696c.2929-.29294.2929-.76782 0-1.06071s-.7678-.29289-1.0607 0l-1.9696 1.96971z"
          fill="#ffffff" fill-rule="evenodd"/>
</svg>

<?xml version="1.0" encoding="utf-8"?><!-- Uploaded to: SVG Repo, www.svgrepo.com, Generator: SVG Repo Mixer Tools -->
<svg width="800px" height="800px" viewBox="0 0 24 24" fill="none" xmlns="http://www.w3.org/2000/svg">
    <path fill-rule="evenodd" clip-rule="evenodd"
          d="M6.87114 19.4986C7.80085 20 8.91458 20 11.142 20H13.779C17.6544 20 19.5921 20 20.7961 18.8284C22 17.6569 22 15.7712 22 12C22 8.22876 22 6.34315 20.7961 5.17157C19.5921 4 17.6544 4 13.779 4H11.142C8.91458 4 7.80085 4 6.87114 4.50143C5.94144 5.00286 5.35117 5.92191 4.17061 7.76001L3.48981 8.82001C2.4966 10.3664 2 11.1396 2 12C2 12.8604 2.4966 13.6336 3.48981 15.18L4.17061 16.24C5.35117 18.0781 5.94144 18.9971 6.87114 19.4986ZM11.0303 8.96967C10.7374 8.67678 10.2625 8.67678 9.96965 8.96967C9.67676 9.26256 9.67676 9.73744 9.96965 10.0303L11.9393 12L9.96967 13.9697C9.67678 14.2626 9.67678 14.7374 9.96967 15.0303C10.2626 15.3232 10.7374 15.3232 11.0303 15.0303L13 13.0607L14.9696 15.0303C15.2625 15.3232 15.7374 15.3232 16.0303 15.0303C16.3232 14.7374 16.3232 14.2625 16.0303 13.9697L14.0606 12L16.0303 10.0304C16.3232 9.73746 16.3232 9.26258 16.0303 8.96969C15.7374 8.6768 15.2625 8.6768 14.9696 8.96969L13 10.9394L11.0303 8.96967Z"
          fill="#FFFFFF"/>
</svg>
